!!!SOCIAL_FUNCTION:	songs of the sun dance
!!!PDT:	1918

Specific Region: Dakotas, Minnesota, Montana, Nebraska
!!!REG: Dakotas and Montana
!!!LING_GROUP: Siouan
!!!LANG: Tone
!!!OTL@ENG: Dancing Song (g)
!!!ONM: No. 35
**kern
*Imale
*clefF4
*k[f#c#g#d#a#]
*M2/4
*MM84
4f#
16f#
8.e
=2
16g#
8.f#
16d#
8.B
=3||
*M3/4
16G#
8.F#
4F#
8.F#
16B
=4||
*M2/4
16B
8.G#
16d#
8.B
=5
16G#
16F#
8F#
4F#
=6
16d#
8.B
16G#
16F#
8F#
=7
16G#
16F#
16D#
16C#
4BB
=8
4F#
8B
16G#
16F#
=9
8G#
16G#
16F#
4D#
=10
8F#
8D#
8F#
16G#
16F#
=11
8D#
8BB
4BB
=12
8D#
16BB
16BB
8D#
16BB
16BB
=13
4BB
16B
8.B
=14
16B
8.G#
16d#
8.B
=15
16G#
16F#
8F#
4F#
=16
16d#
8.B
16G#
16F#
8G#
=17
16G#
16F#
16D#
16C#
4BB
=18
4F#
8B
16G#
16F#
=19
8G#
16G#
16F#
4D#
=20
8F#
8D#
8F#
16G#
16F#
=21
8D#
8BB
4BB
=22
2BB
==
*-
!!!CNT: Native American -- Sioux
!!!MRD: 1911/07//-1914///
!!!OCL: Frances Densmore
!!!YOR1: Teton Sioux Music, Bulletin 61,
!!!YOR2: Bureau of American Ethnology, Smithsonian Institution
!!!PPR: Government Printing Office
!!!PPP: Washington, D.C.
!!!PDT: 1918///
!!!ENC: Craig Stuart Sapp
!!!END: 2002/03/25/
!!!EEV: 2002/03/31/
!!!AGN: Ceremonial Song/Song of the Sun Dance
!!!MPN@@SIO: Shiya'ka
!!!MPN@ENG: Teal Duck
!!!TXO: Teton Sioux
!!!MLC: Standing Rock Reservation, South Dakota, United States of America
!!!ARL: 45.9/-100.7#
!!!catalog: Catalogue No. 459
!!!PPG: 148
!!!EFL: 35/245
!!!VTS: 4047973874
